pragma-ui/public/assets/currencies/usdc.svg

<svg data-name="86977684-12db-4850-8f30-233a7c267d11" xmlns="http://www.w3.org/2000/svg" viewBox="0 0 2000 2000">
  <path d="M1000 2000c554.17 0 1000-445.83 1000-1000S1554.17 0 1000 0 0 445.83 0 1000s445.83 1000 1000 1000z" fill="#B5F0E5"/>
  <path d="M1275 1158.33c0-145.83-87.5-195.83-262.5-216.66-125-16.67-150-50-150-108.34s41.67-95.83 125-95.83c75 0 116.67 25 137.5 87.5 4.17 12.5 16.67 20.83 29.17 20.83h66.66c16.67 0 29.17-12.5 29.17-29.16v-4.17c-16.67-91.67-91.67-162.5-187.5-170.83v-100c0-16.67-12.5-29.17-33.33-33.34h-62.5c-16.67 0-29.17 12.5-33.34 33.34v95.83c-125 16.67-204.16 100-204.16 204.17 0 137.5 83.33 191.66 258.33 212.5 116.67 20.83 154.17 45.83 154.17 112.5s-58.34 112.5-137.5 112.5c-108.34 0-145.84-45.84-158.34-108.34-4.16-16.66-16.66-25-29.16-25h-70.84c-16.66 0-29.16 12.5-29.16 29.17v4.17c16.66 104.16 83.33 179.16 220.83 200v100c0 16.66 12.5 29.16 33.33 33.33h62.5c16.67 0 29.17-12.5 33.34-33.33v-100c125-20.84 208.33-108.34 208.33-220.84z" fill="#fff"/>
  <path d="M787.5 1595.83c-325-116.66-491.67-479.16-370.83-800 62.5-175 200-308.33 370.83-370.83 16.67-8.33 25-20.83 25-41.67V325c0-16.67-8.33-29.17-25-33.33-4.17 0-12.5 0-16.67 4.16-395.83 125-612.5 545.84-487.5 941.67 75 233.33 254.17 412.5 487.5 487.5 16.67 8.33 33.34 0 37.5-16.67 4.17-4.16 4.17-8.33 4.17-16.66v-58.34c0-12.5-12.5-29.16-25-37.5zM1229.17 295.83c-16.67-8.33-33.34 0-37.5 16.67-4.17 4.17-4.17 8.33-4.17 16.67v58.33c0 16.67 12.5 33.33 25 41.67 325 116.66 491.67 479.16 370.83 800-62.5 175-200 308.33-370.83 370.83-16.67 8.33-25 20.83-25 41.67V1700c0 16.67 8.33 29.17 25 33.33 4.17 0 12.5 0 16.67-4.16 395.83-125 612.5-545.84 487.5-941.67-75-237.5-258.34-416.67-487.5-491.67z" fill="#fff"/>
</svg>

<svg width="2000" height="2000" viewBox="0 0 2000 2000" fill="none" xmlns="http://www.w3.org/2000/svg">
<g clip-path="url(#clip0_173_13)">
<path d="M1000 2000C1554.17 2000 2000 1554.17 2000 1000C2000 445.83 1554.17 0 1000 0C445.83 0 0 445.83 0 1000C0 1554.17 445.83 2000 1000 2000Z" fill="#B5F0E5"/>
<path d="M1275 1158.33C1275 1012.5 1187.5 962.5 1012.5 941.67C887.5 925 862.5 891.67 862.5 833.33C862.5 774.99 904.17 737.5 987.5 737.5C1062.5 737.5 1104.17 762.5 1125 825C1129.17 837.5 1141.67 845.83 1154.17 845.83H1220.83C1237.5 845.83 1250 833.33 1250 816.67V812.5C1233.33 720.83 1158.33 650 1062.5 641.67V541.67C1062.5 525 1050 512.5 1029.17 508.33H966.67C950 508.33 937.5 520.83 933.33 541.67V637.5C808.33 654.17 729.17 737.5 729.17 841.67C729.17 979.17 812.5 1033.33 987.5 1054.17C1104.17 1075 1141.67 1100 1141.67 1166.67C1141.67 1233.34 1083.33 1279.17 1004.17 1279.17C895.83 1279.17 858.33 1233.33 845.83 1170.83C841.67 1154.17 829.17 1145.83 816.67 1145.83H745.83C729.17 1145.83 716.67 1158.33 716.67 1175V1179.17C733.33 1283.33 800 1358.33 937.5 1379.17V1479.17C937.5 1495.83 950 1508.33 970.83 1512.5H1033.33C1050 1512.5 1062.5 1500 1066.67 1479.17V1379.17C1191.67 1358.33 1275 1270.83 1275 1158.33Z" fill="#042420"/>
<path d="M787.5 1595.83C462.5 1479.17 295.83 1116.67 416.67 795.83C479.17 620.83 616.67 487.5 787.5 425C804.17 416.67 812.5 404.17 812.5 383.33V325C812.5 308.33 804.17 295.83 787.5 291.67C783.33 291.67 775 291.67 770.83 295.83C375 420.83 158.33 841.67 283.33 1237.5C358.33 1470.83 537.5 1650 770.83 1725C787.5 1733.33 804.17 1725 808.33 1708.33C812.5 1704.17 812.5 1700 812.5 1691.67V1633.33C812.5 1620.83 800 1604.17 787.5 1595.83ZM1229.17 295.83C1212.5 287.5 1195.83 295.83 1191.67 312.5C1187.5 316.67 1187.5 320.83 1187.5 329.17V387.5C1187.5 404.17 1200 420.83 1212.5 429.17C1537.5 545.83 1704.17 908.33 1583.33 1229.17C1520.83 1404.17 1383.33 1537.5 1212.5 1600C1195.83 1608.33 1187.5 1620.83 1187.5 1641.67V1700C1187.5 1716.67 1195.83 1729.17 1212.5 1733.33C1216.67 1733.33 1225 1733.33 1229.17 1729.17C1625 1604.17 1841.67 1183.33 1716.67 787.5C1641.67 550 1458.33 370.83 1229.17 295.83Z" fill="#042420"/>
</g>
<defs>
<clipPath id="clip0_173_13">
<rect width="2000" height="2000" fill="white"/>
</clipPath>
</defs>
</svg>
